X:6
T:Swallowtail
C: Traditional
R:jig
M:6/8
L:1/8
%%%%%Q:3/8=112
K:Edor
P:A
  |: GEE BEE | GEE BAG | FDD ADD | dcd AGF | 
   | GEE BEE | GEE B2c | dcd AGF | GEE E3 :|
P:B
  |: Bcd e2f | e2f edB | Bcd e2f | edB d3 |
   | Bcd e2f | e2f edB | dcd AGF | GEE E3 :|
%%newpage
%%text 
%%text 
%%textfont - 30
%%centre REEL SET
%%
%%
